SVG_Azure_Grouped/Management/Azure LightHouse My Permission.svg

<?xml version="1.0" encoding="UTF-8" standalone="no"?>
<!-- Generated by Microsoft Visio, SVG Export Azure LightHouse My Permission.svg Page-1 -->

<svg
   xmlns:dc="http://purl.org/dc/elements/1.1/"
   xmlns:cc="http://creativecommons.org/ns#"
   xmlns:rdf="http://www.w3.org/1999/02/22-rdf-syntax-ns#"
   xmlns:svg="http://www.w3.org/2000/svg"
   xmlns="http://www.w3.org/2000/svg"
   xmlns:sodipodi="http://sodipodi.sourceforge.net/DTD/sodipodi-0.dtd"
   xmlns:inkscape="http://www.inkscape.org/namespaces/inkscape"
   width="0.70892364in"
   height="0.78743488in"
   viewBox="0 0 51.042829 56.695294"
   xml:space="preserve"
   class="st3"
   version="1.1"
   id="svg36"
   sodipodi:docname="Azure LightHouse My Permission.svg"
   style="font-size:12px;overflow:visible;color-interpolation-filters:sRGB;fill:none;fill-rule:evenodd;stroke-linecap:square;stroke-miterlimit:3"
   inkscape:version="0.92.5 (2060ec1f9f, 2020-04-08)"><metadata
   id="metadata40"><rdf:RDF><cc:Work
       rdf:about=""><dc:format>image/svg+xml</dc:format><dc:type
         rdf:resource="http://purl.org/dc/dcmitype/StillImage" /></cc:Work></rdf:RDF></metadata><sodipodi:namedview
   pagecolor="#ffffff"
   bordercolor="#666666"
   borderopacity="1"
   objecttolerance="10"
   gridtolerance="10"
   guidetolerance="10"
   inkscape:pageopacity="0"
   inkscape:pageshadow="2"
   inkscape:window-width="640"
   inkscape:window-height="480"
   id="namedview38"
   showgrid="false"
   inkscape:zoom="1.4193037"
   inkscape:cx="34.030893"
   inkscape:cy="37.786174"
   inkscape:window-x="0"
   inkscape:window-y="0"
   inkscape:window-maximized="0"
   inkscape:current-layer="svg36" />
	<style
   type="text/css"
   id="style2">
	<![CDATA[
		.st1 {fill:url(#grad0-6);stroke:none;stroke-linecap:butt;stroke-width:34}
		.st2 {fill:#ffffff;fill-opacity:0.8;stroke:none;stroke-linecap:butt;stroke-width:34}
		.st3 {fill:none;fill-rule:evenodd;font-size:12px;overflow:visible;stroke-linecap:square;stroke-miterlimit:3}
	]]>
	</style>

	<defs
   id="Patterns_And_Gradients">
		<linearGradient
   id="grad0-6"
   x1="-0.023958786"
   y1="64.534639"
   x2="53.771093"
   y2="64.534639"
   gradientTransform="scale(0.94883875,1.0539199)"
   gradientUnits="userSpaceOnUse">
			<stop
   offset="0"
   stop-color="#32d4f5"
   stop-opacity="1"
   id="stop4" />
			<stop
   offset="0.21"
   stop-color="#30cff0"
   stop-opacity="1"
   id="stop6" />
			<stop
   offset="0.465"
   stop-color="#2bc0e3"
   stop-opacity="1"
   id="stop8" />
			<stop
   offset="0.75"
   stop-color="#23a7cd"
   stop-opacity="1"
   id="stop10" />
			<stop
   offset="1"
   stop-color="#198ab3"
   stop-opacity="1"
   id="stop12" />
		</linearGradient>
	</defs>
	<g
   id="g34"
   transform="translate(-34.000167,-33.999056)">
		<title
   id="title16">Page-1</title>
		<g
   id="group12804-1"
   transform="translate(34.0229,-34.0157)">
			<title
   id="title18">Azure LightHouse My Permission.12804</title>
			<g
   id="group12805-2">
				<title
   id="title20">g6</title>
				<g
   id="shape12806-3">
					<title
   id="title22">path2</title>
					<path
   d="M 50.99,119.59 C 49.53,107.8 43.81,97.82 33.25,94.58 A 14.2967,14.4279 -180 1 0 17.61,94.46 C 6.97,97.34 1.3,106.38 0,119.63 a 4.56471,4.60658 -180 0 0 4.06,5.04 4.45856,4.49945 -180 0 0 0.47,0.04 h 41.94 a 4.53973,4.58137 -180 0 0 4.55,-4.56 4.59594,4.63809 -180 0 0 -0.03,-0.56 z"
   class="st1"
   id="path24"
   inkscape:connector-curvature="0"
   style="fill:url(#grad0-6);stroke:none;stroke-width:34;stroke-linecap:butt" />
				</g>
				<g
   id="shape12807-7"
   transform="translate(17.7905,-9.8969)">
					<title
   id="title27">path4</title>
					<path
   d="M 7.75,106.78 A 14.2405,14.3711 0 0 1 0,104.48 l 7.67,20.23 7.62,-20.09 a 14.2343,14.3648 0 0 1 -7.54,2.16 z"
   class="st2"
   id="path29"
   inkscape:connector-curvature="0"
   style="fill:#ffffff;fill-opacity:0.8;stroke:none;stroke-width:34;stroke-linecap:butt" />
				</g>
			</g>
		</g>
	</g>
</svg>

<?xml version="1.0" encoding="UTF-8" standalone="no"?>
<!DOCTYPE svg PUBLIC "-//W3C//DTD SVG 1.1//EN" "http://www.w3.org/Graphics/SVG/1.1/DTD/svg11.dtd">
<!-- Generated by Microsoft Visio, SVG Export Azure LightHouse My Permission.svg Page-1 -->
<svg xmlns="http://www.w3.org/2000/svg" xmlns:xlink="http://www.w3.org/1999/xlink" xmlns:ev="http://www.w3.org/2001/xml-events"
		width="1.65342in" height="1.73207in" viewBox="0 0 119.047 124.709" xml:space="preserve" color-interpolation-filters="sRGB"
		class="st3">
	<style type="text/css">
	<![CDATA[
		.st1 {fill:url(#grad0-6);stroke:none;stroke-linecap:butt;stroke-width:34}
		.st2 {fill:#ffffff;fill-opacity:0.8;stroke:none;stroke-linecap:butt;stroke-width:34}
		.st3 {fill:none;fill-rule:evenodd;font-size:12px;overflow:visible;stroke-linecap:square;stroke-miterlimit:3}
	]]>
	</style>

	<defs id="Patterns_And_Gradients">
		<linearGradient id="grad0-6" x1="0" y1="0" x2="1" y2="0" gradientTransform="rotate(84.941446125353 0.5 0.5)">
			<stop offset="0" stop-color="#32d4f5" stop-opacity="1"/>
			<stop offset="0.21" stop-color="#30cff0" stop-opacity="1"/>
			<stop offset="0.465" stop-color="#2bc0e3" stop-opacity="1"/>
			<stop offset="0.75" stop-color="#23a7cd" stop-opacity="1"/>
			<stop offset="1" stop-color="#198ab3" stop-opacity="1"/>
		</linearGradient>
	</defs>
	<g>
		<title>Page-1</title>
		<g id="group12511-1" transform="translate(34.0229,-34.0157)">
			<title>Azure LightHouse My Permission.12511</title>
			<g id="group12512-2">
				<title>g6</title>
				<g id="shape12513-3">
					<title>path2</title>
					<path d="M50.99 119.59 C49.53 107.8 43.81 97.82 33.25 94.58 A14.2967 14.4279 -180 1 0 17.61 94.46 C6.97 97.34
								 1.3 106.38 0 119.63 A4.56471 4.60658 -180 0 0 4.06 124.67 A4.45856 4.49945 -180 0 0 4.53 124.71
								 L46.47 124.71 A4.53973 4.58137 -180 0 0 51.02 120.15 A4.59594 4.63809 -180 0 0 50.99 119.59 Z"
							class="st1"/>
				</g>
				<g id="shape12514-7" transform="translate(17.7905,-9.8969)">
					<title>path4</title>
					<path d="M7.75 106.78 A14.2405 14.3711 0 0 1 -0 104.48 L7.67 124.71 L15.29 104.62 A14.2343 14.3648 0 0 1 7.75
								 106.78 Z" class="st2"/>
				</g>
			</g>
		</g>
	</g>
</svg>
